X: 44
T:all Bear
M:6/4
L:1/4
S:Wrigth 1713
Z:p
K:D
a|afad2c|B>cdg>fe|c2AA2a|afbg2f|B>cdg>fe|e2dd2||
d|dBdg>fe|a>ba^ge^g|a2ba2g|fdcBcf|g>fe a>ba|f2dd2||
